X: 19446
T: Jackson's
R: jig
M: 6/8
K: Dmajor
|:FAD AFD|D3 AFD|FAD AFD|E2F G2E|
FAD AFD|D3 AFD|dcB cAF|E2F G2E:|
|:d2A ABA|d2A AGF|d2d efg|fdd ecA|
d2A ABA|d2A AGF|d2d efg|faf d3:|
|:d2e f2d|g2e f2d|g2e fdB|gfe fdB|
d2e f2d|g2e f2d|Acd efg|faf d3:|
|:dAF D3|FAG FDD|FDF FAF|E2F GFE|
F3 ABc|dcB cAF|dcB AdF|E2F G2E:|

